X: 1
T: Hommage \`a Doroth\'ee
C: Philippe Bruneau
R: waltz
Z: 2008 John Chambers <jc@trillian.mit.edu> 
S: http://tradquebec.over-blog.com/ 2007-11-1
M: 3/4
L: 1/8
K: Am
E2 "A"\
|: AE AB cA | Be Be eE | AE AB cA | Be Be eE | AE AB cA | B2 GB df | e6 |1 ef ed cB \
                                                                       :|2 e4 A2 ||
|: dA de fd | ea Aa aA | dA de fd | ea Aa aA | dA de fd | e2 ce gc' |1 a6  | ac' ag fe \
                                                                   :|2 a6- | a2 g2 f2 ||
[| e3  g Gg | g2 f2 e2 | d3  f Gf | f2 e2 d2 | B3 b Gb| b2 a2 f2 | e6 | ef ed cB ||
|  AE AB cA | Be Be eE | AE AB cA | Be Be eE | AE AB cA | B2  ed cB | A2 EA ce | aa a2 |]
"B"\
|: a2 c'2 a2 | e3 d c2 | d2 f3 d | B6 |1-3 G2 B2 d2 | f2 e2 d2 | c2 cB AB | cB A4 \
                                     :|2-4 G2 B2 dd-| d2 c2 B2 | A2 EA ce | aa a4 :|
